packages/icons/src/remove-graph.svg

<svg viewBox="0 0 24 24" fill="currentColor" xmlns="http://www.w3.org/2000/svg">
<rect rx="2" fill="currentColor"/>
<path fill-rule="evenodd" clip-rule="evenodd" d="M12 14.1254C15.0722 14.1254 17.5627 11.6349 17.5627 8.56268C17.5627 5.4905 15.0722 3 12 3C8.92784 3 6.43734 5.4905 6.43734 8.56268C6.43734 11.6349 8.92784 14.1254 12 14.1254ZM8.59954 8.8183C8.59954 9.09444 8.8234 9.3183 9.09954 9.3183H14.9009C15.177 9.3183 15.4009 9.09444 15.4009 8.8183V8.3069C15.4009 8.03075 15.177 7.8069 14.9009 7.8069L9.09954 7.8069C8.8234 7.8069 8.59954 8.03075 8.59954 8.3069V8.8183Z" fill="currentColor"/>
<path d="M17.3497 16.0289V21H19.4971V16.0289H17.3497ZM8.78261 16.7661V21H10.9301V16.7661H8.78261ZM13.0699 17.5033V21H15.2098V17.5033H13.0699ZM4.50288 18.2372V21H6.64275V18.2372H4.50288Z" fill="currentColor"/>
</svg>

<svg xmlns="http://www.w3.org/2000/svg" fill="currentColor" viewBox="0 0 24 24"><rect rx="2"/><path fill-rule="evenodd" d="M12 14.125A5.563 5.563 0 1 0 12 3a5.563 5.563 0 0 0 0 11.125ZM8.6 8.818a.5.5 0 0 0 .5.5h5.8a.5.5 0 0 0 .5-.5v-.511a.5.5 0 0 0-.5-.5H9.1a.5.5 0 0 0-.5.5v.511Z" clip-rule="evenodd"/><path d="M17.35 16.029V21h2.147v-4.971H17.35Zm-8.567.737V21h2.147v-4.234H8.783Zm4.287.737V21h2.14v-3.497h-2.14Zm-8.567.734V21h2.14v-2.763h-2.14Z"/></svg>
